X:1
T:There’s a Picture Fair and Bright
T:Daniel Brink Towner
T:There’s a Picture Fair and Bright
T:Public Domain
T:Public Domain
T:Public Domain
T:Public Domain
C:Daniel Brink Towner
Z:Public Domain
%%score ( 1 2 ) ( 3 4 )
L:1/8
M:4/4
K:G
V:1 treble 
V:2 treble 
V:3 bass 
V:4 bass 
V:1
 [B,G][CA] | [DB][DB][DB][DB] [DB]2 [CA][B,G] | [EG]>[EA] [EG][CE] [B,D]2 [B,G][CA] | %3
w: 1.~There’s a|pic- ture fair and bright, Hang- ing|still on mem- ory’s wall: There I|
w: 2.~While I|look, the pic- tures change, And I|see my mo- ther’s face; In her|
w: 3.~O the|bless- èd days of old, When I|felt my mo- ther’s hand, With its|
w: 4.~When I|long for voic- es hushed, And the|touch of van- ished hands, In the|
 [DB][DB][DB][DB] [DB][CA][B,G][GB] | [FA]6 [GB][Ac] | [Bd][GB][FA][DB] [B,G]2 [B,G][B,G] | %6
w: see my fa- ther take the Book di-|vine; Dear home|fac- es ga- thered round, As the|
w: hand the Bi- ble, worn and stained with|tears; But the|light is shin- ing still, And with-|
w: ten- der touch of love up- on my|head, While the|old, old, sto- ry sweet, Which a|
w: dark- ness when death’s an- gel spreads his|wing, Let me|turn to mo- ther’s Book, With its|
 [EG]>[EA] [EG][CE] [B,D]2 [B,G][CA] | [DB][Ec][DB][B,G] [CA][CE] [CF]>[CD] | [B,G]6 || %9
w: sha- dows soft- ly fall, And a|light from out the pag- es seems to|shine.|
w: in the ha- llowed place There is|com- fort for earth’s griefs and doubts and|fears.|
w: child can un- der- stand, From the|pag- es of the Book di- vine she|read.|
w: com- forts and com- mands, For the|peace and hope its bless- èd page- s|bring!|
"^Refrain" [Bd][^A^c] | [Ac]6 [Ac][FA] | [GB]6 [GB][DA] | [DG][DF] [DG]>[DA] [GB][Ge] [Gd]>[GB] | %13
w: ||||
w: ||||
w: Dear old|Book, pre- cious|Book, On thy|pag- es soiled and worn I love to|
w: ||||
 [FA]6 [GB][Ac] | [Bd][GB][DA][DB] [DG]2 [DG][DA] | [GB][DG] [CE]<[CG] [B,D]2 [DG][DA] | %16
w: |||
w: |||
w: look! O thou|balm for hearts that ache, For my|saint- ed mo- ther’s sake, Thou art|
w: |||
 [GB][Gc][GB][DG] [EA]>E [DF]D | [DG]6 |] %18
w: ||
w: ||
w: dear- er day by day, thou bless- èd||
w: ||
V:2
 x2 | x8 | x8 | x8 | x8 | x8 | x8 | x8 | x6 || x2 | x8 | x8 | x8 | x8 | x8 | x8 | %16
w: ||||||||||||||||
w: ||||||||||||||||
w: ||||||||||||||||
 x11/2 E/ x/ D x/ | x6 |] %18
w: ||
w: ||
w: Book! *||
V:3
 B,C | DDDD D2 CB, | E>E EC [G,,G,B,]2 B,C | DDDD DCB,G, | [D,,D,F,]6 G,A, | %5
 [G,,G,B,]D[D,,D,C]D C2 B,B, | E>E EC B,2 B,C | DEDB, CC C>C | [G,,G,B,]6 || z2 | %10
 (3(D,D,[F,D] [D,D]4) z2 | z2 (3(G,,B,,[D,D] [G,D]2) [G,D][G,C] | %12
 [G,B,][G,B,] [G,B,]>[G,C] [G,D][G,C] [G,B,]>[G,D] | (D,2 D,D, D,C,)[B,,D][A,,D] | %14
 [G,,G,][G,,G,][D,F,][D,G,] [G,B,]2 [G,B,][G,C] | [G,D][B,,D] [C,G,]<[E,G,] G,2 [G,B,][G,C] | %16
 [G,D][G,E][G,D][B,,D] [C,C]>[C,C] [D,C][D,C] | [G,,G,B,]6 |] %18
V:4
 B,C | [G,,G,]4 [G,,G,]4 | C,4 x/ [A,,G,]2 x3/2 | [G,,G,]4 [G,,G,]4 | x8 | x4 [G,,G,]4 | %6
 C,4 [G,,G,]4 | [G,,G,]4 C,2 D,2 | x6 || x2 | D2 x6 | x2 D2 x4 | x8 | D6 x2 | x8 | x4 G,2 x2 | x8 | %17
 x6 |] %18

